src/symbolic/actions/zoom-fit-best-symbolic.svg

<?xml version="1.0" encoding="UTF-8" standalone="no"?>
<svg
   xmlns:osb="http://www.openswatchbook.org/uri/2009/osb"
   xmlns:dc="http://purl.org/dc/elements/1.1/"
   xmlns:cc="http://creativecommons.org/ns#"
   xmlns:rdf="http://www.w3.org/1999/02/22-rdf-syntax-ns#"
   xmlns:svg="http://www.w3.org/2000/svg"
   xmlns="http://www.w3.org/2000/svg"
   xmlns:sodipodi="http://sodipodi.sourceforge.net/DTD/sodipodi-0.dtd"
   xmlns:inkscape="http://www.inkscape.org/namespaces/inkscape"
   width="15.981825"
   version="1.1"
   style="enable-background:new"
   id="svg7384"
   height="16"
   inkscape:version="0.91 r"
   sodipodi:docname="zoom-fit-best-symbolic.svg">
  <sodipodi:namedview
     pagecolor="#ffffff"
     bordercolor="#666666"
     borderopacity="1"
     objecttolerance="10"
     gridtolerance="10"
     guidetolerance="10"
     inkscape:pageopacity="0"
     inkscape:pageshadow="2"
     inkscape:window-width="640"
     inkscape:window-height="480"
     id="namedview21"
     showgrid="false"
     inkscape:zoom="14.75"
     inkscape:cx="7.9909124"
     inkscape:cy="8"
     inkscape:window-x="0"
     inkscape:window-y="27"
     inkscape:window-maximized="0"
     inkscape:current-layer="svg7384" />
  <metadata
     id="metadata90">
    <rdf:RDF>
      <cc:Work
         rdf:about="">
        <dc:format>image/svg+xml</dc:format>
        <dc:type
           rdf:resource="http://purl.org/dc/dcmitype/StillImage" />
        <dc:title>Moka Symbolic Icon Theme</dc:title>
      </cc:Work>
    </rdf:RDF>
  </metadata>
  <title
     id="title8473">Moka Symbolic Icon Theme</title>
  <defs
     id="defs7386">
    <linearGradient
       osb:paint="solid"
       id="linearGradient5606">
      <stop
         style="stop-color:#000000;stop-opacity:1;"
         offset="0"
         id="stop5608" />
    </linearGradient>
    <filter
       style="color-interpolation-filters:sRGB"
       id="filter7554">
      <feBlend
         mode="darken"
         in2="BackgroundImage"
         id="feBlend7556" />
    </filter>
  </defs>
  <path
     inkscape:connector-curvature="0"
     d="m 3.18732,1.99998 c -0.6627,0 -1.1875,0.54894 -1.1875,1.21875 l 0,9.5625 c 0,0.66976 0.5248,1.21875 1.1875,1.21875 l 9.625,0 c 0.6627,0 1.1875,-0.54894 1.1875,-1.21875 l 0,-9.5625 c 0,-0.66976 -0.5248,-1.21875 -1.1875,-1.21875 l -9.625,0 z m 0.8125,2 3,0 0,2 -1,0 0,1 -2,0 0,-3 z m 5,0 3,0 0,3 -2,0 0,-1 -1,0 0,-2 z m -5,5 2,0 0,1 1,0 0,2 -3,0 0,-3 z m 6,0 2,0 0,3 -3,0 0,-2 1,0 0,-1 z"
     id="path5311"
     style="color:#bebebe;fill:#bebebe;stroke:none" />
</svg>

<svg xmlns="http://www.w3.org/2000/svg" width="15.982" height="16"><path d="M3.187 2C2.525 2 2 2.549 2 3.219v9.562C2 13.451 2.525 14 3.187 14h9.625c.663 0 1.188-.549 1.188-1.219V3.22C14 2.549 13.475 2 12.812 2H3.187zM4 4h3v2H6v1H4V4zm5 0h3v3h-2V6H9V4zM4 9h2v1h1v2H4V9zm6 0h2v3H9v-2h1V9z" color="#5d656b" fill="#5d656b"/></svg>
